__todo__/puppet-icon.svg

<svg height="395" preserveAspectRatio="xMidYMid" viewBox="0 0 256 395" width="256" xmlns="http://www.w3.org/2000/svg"><path d="m256 256v-117.796165h-90.155399l-48.048436-48.3067613v-89.8970737h-117.796165v117.796165h90.1553986l48.3067604 48.306761v62.256307l-48.3067604 48.306761h-90.1553986v117.796165h117.796165v-89.897073l48.306761-48.306761h89.897074zm-216.7346115-216.7346115h39.2653885v39.2653885h-39.2653885zm39.2653885 315.6730575h-39.2653885v-39.265388h39.2653885z" fill="#ffae1a"/></svg>

<?xml version="1.0" encoding="UTF-8"?>
<svg width="256px" height="395px" viewBox="0 0 256 395" version="1.1" xmlns="http://www.w3.org/2000/svg" xmlns:xlink="http://www.w3.org/1999/xlink" preserveAspectRatio="xMidYMid">
    <g>
        <path d="M256,256 L256,138.203835 L165.844601,138.203835 L117.796165,89.8970737 L117.796165,0 L0,0 L0,117.796165 L90.1553986,117.796165 L138.462159,166.102926 L138.462159,228.359233 L90.1553986,276.665994 L0,276.665994 L0,394.462159 L117.796165,394.462159 L117.796165,304.565086 L166.102926,256.258325 L256,256.258325 L256,256 L256,256 Z M39.2653885,39.2653885 L78.530777,39.2653885 L78.530777,78.530777 L39.2653885,78.530777 L39.2653885,39.2653885 Z M78.530777,354.938446 L39.2653885,354.938446 L39.2653885,315.673058 L78.530777,315.673058 L78.530777,354.938446 Z" fill="#FFAE1A"></path>
    </g>
</svg>
